!!!OTL: 1342. Soldaten-Wehmuth.
!!!ODT: 1880
!!!ARE: Europa, Mitteleuropa, Deutschland, Hessen, Darmstadt
!!!SCT: E1342B
!!!TXL: @@DE
!!!YEM: Copyright 1995, estate of Helmut Schaffrath.
**kern	**text
*ICvox	*
*M4/4	*
*met(c)	*
*k[]	*
*C:	*
!LO:TX:a:t=Langsam.	!
!LO:TX:a:t=Aus dem Heſſen-Darmſtädtiſchen 1880.	!
{8.g	Dun-
16g	-kle
=1	=1
4.cc	Nacht
8b	im
8a	finſtern
8g	.
8f	Schleier
8e	.
=2	=2
4g	dek-
4f	-ket
4r}	.
{8.g	mein
16g	Ge-
=3	=3
4.b/	-ſicht
8a	vielleicht
8g	.
8g	ʒum
8.f	letʒ-
16g	-ten-
=4	=4
2e	-mal,
4r}	.
{8.g	mor-
16cc	-gen
=5	=5
4.ee	lieg
8dd	ich
8cc	ſchon
8b	da-
8a	-hin
8g	ge-
=6	=6
4b/	-ſtrek-
4a	-ket,
4r}	.
{8.cc	aus-
16cc	-ge-
=7	=7
4.cc	-löſcht
8g	aus
8g	der
8g	Lebend'
8.f	.
16g	gen
=8	=8
2e	Ʒahl.
4r}	.
{8.g	mor-
16cc	-gen
=9	=9
4.ee	lieg
8dd	ich
8cc	ſchon
8b	da-
8a	-hin
8g	ge-
=10	=10
4b/	-ſtrek-
4a	-ket,
4r}	.
{8.cc	aus-
16cc	-ge-
=11	=11
4.cc	-löſcht
8g	aus
8g	der
8g	Lebend'
8.f	.
16g	gen
=12	=12
2e	Ʒahl.
4r}	.
==	==
!!!AGN: Staende -, Soldaten -, Kriegs - Lied
!!!ONB: ESAC (Essen Associative Code) Database: ERK3
!!!AMT: simple quadruple
!!!AIN: vox
!!!EED: Helmut Schaffrath
!!!EEV: 1.0
!!!GTL: Staendelieder (Berufslieder). 1. Soldaten- und Kriegslieder. Soldatenlieder seit dem 30jaehr. Kriege.
!!!URL-scan: https://rosdok.uni-rostock.de/mcrviewer/recordIdentifier/rosdok_ppn745177999/iview2/phys_0225.iview2?x=-128.77276441889285&y=188.99667812429834&scale=0.5870222003877487&rotation=0&layout=singlePageLayout
!!!ENC: Anna Maria Matuszewska
!!!EEV: 2024/12/27
*-	*-
